src/images/find.svg

<svg width="80" height="34" viewBox="0 0 80 34" fill="none" xmlns="http://www.w3.org/2000/svg">
<rect x="21.3496" width="58.65" height="34" rx="17" fill="#4285F4"/>
<path d="M34.9467 21V13H36.1537V16.4766H40.142V13H41.3529V21H40.142V17.5117H36.1537V21H34.9467ZM44.7631 21.1328C44.3829 21.1328 44.0391 21.0625 43.7318 20.9219C43.4245 20.7786 43.1811 20.5716 43.0014 20.3008C42.8243 20.0299 42.7357 19.6979 42.7357 19.3047C42.7357 18.9661 42.8008 18.6875 42.9311 18.4687C43.0613 18.25 43.237 18.0768 43.4584 17.9492C43.6798 17.8216 43.9271 17.7253 44.2006 17.6602C44.474 17.5951 44.7527 17.5456 45.0365 17.5117C45.3959 17.4701 45.6876 17.4362 45.9115 17.4102C46.1355 17.3815 46.2982 17.3359 46.3998 17.2734C46.5014 17.2109 46.5521 17.1094 46.5521 16.9687V16.9414C46.5521 16.6003 46.4558 16.3359 46.2631 16.1484C46.073 15.9609 45.7891 15.8672 45.4115 15.8672C45.0183 15.8672 44.7084 15.9544 44.4818 16.1289C44.2579 16.3008 44.1029 16.4922 44.017 16.7031L42.9193 16.4531C43.0495 16.0885 43.2396 15.7943 43.4896 15.5703C43.7423 15.3437 44.0326 15.1797 44.3607 15.0781C44.6889 14.974 45.0339 14.9219 45.3959 14.9219C45.6355 14.9219 45.8894 14.9505 46.1576 15.0078C46.4284 15.0625 46.6811 15.1641 46.9154 15.3125C47.1524 15.4609 47.3464 15.6732 47.4975 15.9492C47.6485 16.2227 47.724 16.5781 47.724 17.0156V21H46.5834V20.1797H46.5365C46.461 20.3307 46.3477 20.4792 46.1967 20.625C46.0456 20.7708 45.8516 20.8919 45.6146 20.9883C45.3777 21.0846 45.0938 21.1328 44.7631 21.1328ZM45.017 20.1953C45.3399 20.1953 45.6159 20.1315 45.8451 20.0039C46.0769 19.8763 46.2527 19.7096 46.3725 19.5039C46.4949 19.2956 46.5561 19.0729 46.5561 18.8359V18.0625C46.5144 18.1042 46.4337 18.1432 46.3139 18.1797C46.1967 18.2135 46.0626 18.2435 45.9115 18.2695C45.7605 18.293 45.6133 18.3151 45.4701 18.3359C45.3269 18.3542 45.2071 18.3698 45.1107 18.3828C44.8842 18.4115 44.6771 18.4596 44.4896 18.5273C44.3048 18.5951 44.1563 18.6927 44.0443 18.8203C43.935 18.9453 43.8803 19.112 43.8803 19.3203C43.8803 19.6094 43.987 19.8281 44.2006 19.9766C44.4141 20.1224 44.6863 20.1953 45.017 20.1953ZM50.4242 19.3633L53.0687 15H54.3266V21H53.182V16.6328L50.5492 21H49.2797V15H50.4242V19.3633ZM52.5687 12.9687H53.5297C53.5297 13.4089 53.3734 13.7669 53.0609 14.043C52.751 14.3164 52.3318 14.4531 51.8031 14.4531C51.2771 14.4531 50.8591 14.3164 50.5492 14.043C50.2393 13.7669 50.0844 13.4089 50.0844 12.9687H51.0414C51.0414 13.1641 51.0987 13.3372 51.2133 13.4883C51.3279 13.6367 51.5245 13.7109 51.8031 13.7109C52.0766 13.7109 52.2719 13.6367 52.3891 13.4883C52.5089 13.3398 52.5687 13.1667 52.5687 12.9687ZM55.1527 16.0078V15H60.2152V16.0078H58.2582V21H57.1176V16.0078H55.1527ZM62.5951 19.3633L65.2396 15H66.4975V21H65.3529V16.6328L62.7201 21H61.4506V15H62.5951V19.3633Z" fill="white"/>
</svg>

<svg width="80" height="34" fill="none" xmlns="http://www.w3.org/2000/svg"><rect x="21.35" width="58.65" height="34" rx="17" fill="#4285F4"/><path d="M34.947 21v-8h1.207v3.477h3.988V13h1.21v8h-1.21v-3.488h-3.988V21h-1.207zm9.816.133c-.38 0-.724-.07-1.031-.211a1.738 1.738 0 0 1-.73-.621c-.178-.271-.266-.603-.266-.996 0-.339.065-.617.195-.836.13-.219.306-.392.527-.52.222-.127.47-.224.743-.289a7.39 7.39 0 0 1 .835-.148l.875-.102c.224-.029.387-.074.489-.137.101-.062.152-.164.152-.304v-.028c0-.34-.096-.605-.289-.793-.19-.187-.474-.28-.852-.28-.393 0-.703.086-.93.26a1.4 1.4 0 0 0-.464.575l-1.098-.25c.13-.364.32-.659.57-.883.253-.226.544-.39.872-.492a3.403 3.403 0 0 1 1.035-.156c.24 0 .493.028.762.086.27.055.523.156.757.305.237.148.431.36.583.636.15.274.226.63.226 1.067V21h-1.14v-.82h-.048c-.075.15-.188.3-.34.445a1.808 1.808 0 0 1-.581.363c-.237.097-.521.145-.852.145zm.254-.938c.323 0 .599-.064.828-.191a1.34 1.34 0 0 0 .528-.5c.122-.208.183-.431.183-.668v-.773a.609.609 0 0 1-.242.117 3.769 3.769 0 0 1-.403.09l-.44.066a54.19 54.19 0 0 0-.36.047 2.9 2.9 0 0 0-.621.144 1.068 1.068 0 0 0-.446.293c-.109.125-.164.292-.164.5 0 .29.107.508.32.657.214.145.486.218.817.218zm5.407-.832L53.07 15h1.258v6h-1.145v-4.367L50.549 21h-1.27v-6h1.145v4.363zm2.145-6.394h.96c0 .44-.156.798-.468 1.074-.31.273-.73.41-1.258.41-.526 0-.944-.137-1.254-.41-.31-.276-.465-.634-.465-1.074h.957c0 .195.058.368.172.52.115.148.312.222.59.222.274 0 .469-.074.586-.223a.803.803 0 0 0 .18-.52zm2.584 3.039V15h5.062v1.008h-1.957V21h-1.14v-4.992h-1.965zm7.442 3.355L65.24 15h1.258v6h-1.145v-4.367L62.72 21h-1.27v-6h1.145v4.363z" fill="#fff"/></svg>
